src/assets/img/globalping/globalping-nonprofit-icon.svg

<svg width="48" height="50" viewBox="0 0 48 50" fill="none" xmlns="http://www.w3.org/2000/svg">
<path d="M22 2.1547C23.2376 1.44017 24.7624 1.44017 26 2.1547L42.7846 11.8453C44.0222 12.5598 44.7846 13.8803 44.7846 15.3094V34.6906C44.7846 36.1197 44.0222 37.4402 42.7846 38.1547L26 47.8453C24.7624 48.5598 23.2376 48.5598 22 47.8453L5.21539 38.1547C3.97779 37.4402 3.21539 36.1197 3.21539 34.6906V15.3094C3.21539 13.8803 3.97779 12.5598 5.21539 11.8453L22 2.1547Z" fill="#17D4A7" stroke="#69E7C8" stroke-width="2" stroke-linecap="round" stroke-linejoin="round"/>
<path d="M22 8.1547C23.2376 7.44017 24.7624 7.44017 26 8.1547L37.5885 14.8453C38.8261 15.5598 39.5885 16.8803 39.5885 18.3094V31.6906C39.5885 33.1197 38.8261 34.4402 37.5885 35.1547L26 41.8453C24.7624 42.5598 23.2376 42.5598 22 41.8453L10.4115 35.1547C9.17394 34.4402 8.41154 33.1197 8.41154 31.6906V18.3094C8.41154 16.8803 9.17394 15.5598 10.4115 14.8453L22 8.1547Z" fill="url(#paint0_radial_3965_8885)" stroke="#69E7C8" stroke-width="2" stroke-linecap="round" stroke-linejoin="round"/>
<g clip-path="url(#clip0_3965_8885)">
<path d="M32.2458 26.434C32.2458 28.6892 31.3296 30.852 29.6987 32.4467C28.0678 34.0414 25.8558 34.9372 23.5494 34.9372C21.2429 34.9372 19.0309 34.0414 17.4 32.4467C15.7691 30.852 14.8529 28.6892 14.8529 26.434C14.8529 21.7344 23.5494 11.8784 23.5494 11.8784C23.5494 11.8784 32.2458 21.7344 32.2458 26.434Z" fill="white" stroke="#17233A" stroke-width="2" stroke-linecap="round" stroke-linejoin="round"/>
<path d="M23.5 11.9333L23.5 38.0667" stroke="#17233A" stroke-width="2" stroke-linecap="round" stroke-linejoin="round"/>
<path d="M20.998 21.1918L23.5494 23.6865L26.1009 21.1918" stroke="#17233A" stroke-width="2" stroke-linecap="round" stroke-linejoin="round"/>
<path d="M20.0097 26.75L23.5494 30.211L27.0891 26.75" stroke="#17233A" stroke-width="2" stroke-linecap="round" stroke-linejoin="round"/>
</g>
<defs>
<radialGradient id="paint0_radial_3965_8885" cx="0" cy="0" r="1" gradientUnits="userSpaceOnUse" gradientTransform="translate(13 12) rotate(59.3814) scale(28.4693)">
<stop stop-color="white" stop-opacity="0.89"/>
<stop offset="1" stop-color="white" stop-opacity="0"/>
</radialGradient>
<clipPath id="clip0_3965_8885">
<rect width="21" height="28" fill="white" transform="translate(13 11)"/>
</clipPath>
</defs>
</svg>

<svg xmlns="http://www.w3.org/2000/svg" width="48" height="50" fill="none">
  <path fill="#17D4A7" stroke="#69E7C8" stroke-linecap="round" stroke-linejoin="round" stroke-width="2" d="M22 2.155a4 4 0 0 1 4 0l16.785 9.69a4 4 0 0 1 2 3.464v19.382a4 4 0 0 1-2 3.464L26 47.845a4 4 0 0 1-4 0l-16.785-9.69a4 4 0 0 1-2-3.464V15.309a4 4 0 0 1 2-3.464L22 2.155Z"/>
  <path fill="url(#a)" stroke="#69E7C8" stroke-linecap="round" stroke-linejoin="round" stroke-width="2" d="M22 8.155a4 4 0 0 1 4 0l11.589 6.69a4 4 0 0 1 2 3.464v13.382a4 4 0 0 1-2 3.464L26 41.845a4 4 0 0 1-4 0l-11.588-6.69a4 4 0 0 1-2-3.464V18.309a4 4 0 0 1 2-3.464L22 8.155Z"/>
  <g stroke="#17233A" stroke-linecap="round" stroke-linejoin="round" stroke-width="2" clip-path="url(#b)">
    <path fill="#fff" d="M32.246 26.434a8.409 8.409 0 0 1-2.547 6.013 8.798 8.798 0 0 1-6.15 2.49 8.798 8.798 0 0 1-6.149-2.49 8.409 8.409 0 0 1-2.547-6.013c0-4.7 8.696-14.556 8.696-14.556s8.697 9.856 8.697 14.556Z"/>
    <path d="M23.5 11.933v26.134m-2.502-16.875 2.551 2.494 2.552-2.494M20.01 26.75l3.54 3.461 3.54-3.461"/>
  </g>
  <defs>
    <radialGradient id="a" cx="0" cy="0" r="1" gradientTransform="rotate(59.381 -4.023 17.4) scale(28.4693)" gradientUnits="userSpaceOnUse">
      <stop stop-color="#fff" stop-opacity=".89"/>
      <stop offset="1" stop-color="#fff" stop-opacity="0"/>
    </radialGradient>
    <clipPath id="b">
      <path fill="#fff" d="M13 11h21v28H13z"/>
    </clipPath>
  </defs>
</svg>
